icons/skip-forward.svg

<svg xmlns="http://www.w3.org/2000/svg" width="24" height="24" viewBox="0 0 24 24">
  <path d="M21,2 C21.5128358,2 21.9355072,2.38604019 21.9932723,2.88337887 L22,3 L22,21 C22,21.5522847 21.5522847,22 21,22 C20.4871642,22 20.0644928,21.6139598 20.0067277,21.1166211 L20,21 L20.0004165,12.6679456 C19.9495456,12.7246248 19.8922773,12.7754059 19.8296687,12.8192319 L12.5734623,17.8985764 C12.121013,18.2152909 11.4974826,18.1052561 11.1807681,17.6528068 C11.0631096,17.4847232 11,17.2845165 11,17.0793444 L10.9994795,12.6689881 C10.9488427,12.7252476 10.8918932,12.7756748 10.8296687,12.8192319 L3.57346234,17.8985764 C3.12101305,18.2152909 2.49748259,18.1052561 2.18076808,17.6528068 C2.0631096,17.4847232 2,17.2845165 2,17.0793444 L2,6.92065556 C2,6.36837081 2.44771525,5.92065556 3,5.92065556 C3.2051721,5.92065556 3.40537881,5.98376517 3.57346234,6.10142364 L10.8296687,11.1807681 C10.8936757,11.225573 10.9508299,11.2765182 11.0008925,11.3322507 L11,6.92065556 C11,6.36837081 11.4477153,5.92065556 12,5.92065556 C12.2051721,5.92065556 12.4053788,5.98376517 12.5734623,6.10142364 L19.8296687,11.1807681 C19.8940757,11.225853 19.951544,11.2771552 20.0018303,11.3332963 L20,3 C20,2.44771525 20.4477153,2 21,2 Z"/>
</svg>

<svg xmlns="http://www.w3.org/2000/svg" viewBox="0 0 24 24">
  <path d="M21 2a1 1 0 0 1 1 .88V21a1 1 0 0 1-2 .12v-8.45a1 1 0 0 1-.17.15l-7.26 5.08a1 1 0 0 1-1.57-.82v-4.41a1 1 0 0 1-.17.15L3.57 17.9A1 1 0 0 1 2 17.08V6.92a1 1 0 0 1 1.57-.82l7.26 5.08a1 1 0 0 1 .17.15v-4.4a1 1 0 0 1 1.57-.83l7.26 5.08a1 1 0 0 1 .17.15V3a1 1 0 0 1 1-1z"/>
</svg>
